src/lib/packages/icons/src/assets/filled/calendar-times-alt.svg

<svg width="24" height="24" viewBox="0 0 24 24" fill="none" xmlns="http://www.w3.org/2000/svg">
<path d="M2 6.94995V6.5C2 4.5 3 3.5 5 3.5H6.25V2C6.25 1.59 6.59 1.25 7 1.25C7.41 1.25 7.75 1.59 7.75 2V3.5H14.25V2C14.25 1.59 14.59 1.25 15 1.25C15.41 1.25 15.75 1.59 15.75 2V3.5H17C19 3.5 20 4.5 20 6.5V6.94995C20 7.11595 19.866 7.25 19.7 7.25H2.30005C2.13405 7.25 2 7.11595 2 6.94995ZM12.74 19.6101C12.8 19.8001 12.67 20 12.46 20H5C3 20 2 19 2 17V9.05005C2 8.88405 2.13405 8.75 2.30005 8.75H19.7C19.866 8.75 20 8.88405 20 9.05005V12.46C20 12.67 19.8001 12.8 19.6101 12.74C19.0211 12.56 18.4019 12.48 17.7429 12.51C14.9739 12.635 12.637 14.97 12.511 17.74C12.48 18.4 12.56 19.0201 12.74 19.6101ZM8.02002 16C8.02002 15.448 7.57302 15 7.02002 15H7.01001C6.45801 15 6.01489 15.448 6.01489 16C6.01489 16.552 6.46802 17 7.02002 17C7.57202 17 8.02002 16.552 8.02002 16ZM8.02002 12C8.02002 11.448 7.57302 11 7.02002 11H7.01001C6.45801 11 6.01489 11.448 6.01489 12C6.01489 12.552 6.46802 13 7.02002 13C7.57202 13 8.02002 12.552 8.02002 12ZM12.02 12C12.02 11.448 11.573 11 11.02 11H11.01C10.458 11 10.0149 11.448 10.0149 12C10.0149 12.552 10.468 13 11.02 13C11.572 13 12.02 12.552 12.02 12ZM22 18C22 20.209 20.209 22 18 22C15.791 22 14 20.209 14 18C14 15.791 15.791 14 18 14C20.209 14 22 15.791 22 18ZM18.707 18L19.353 17.354C19.548 17.159 19.548 16.842 19.353 16.647C19.158 16.452 18.841 16.452 18.646 16.647L18 17.293L17.354 16.647C17.159 16.452 16.842 16.452 16.647 16.647C16.452 16.842 16.452 17.159 16.647 17.354L17.293 18L16.647 18.646C16.452 18.841 16.452 19.158 16.647 19.353C16.745 19.451 16.873 19.499 17.001 19.499C17.129 19.499 17.257 19.45 17.355 19.353L18.001 18.707L18.647 19.353C18.745 19.451 18.873 19.499 19.001 19.499C19.129 19.499 19.257 19.45 19.355 19.353C19.55 19.158 19.55 18.841 19.355 18.646L18.707 18Z" fill="currentColor"/>
</svg>

<svg xmlns="http://www.w3.org/2000/svg" width="24" height="24" fill="none"><path fill="currentColor" d="M2 6.95V6.5c0-2 1-3 3-3h1.25V2c0-.41.34-.75.75-.75s.75.34.75.75v1.5h6.5V2c0-.41.34-.75.75-.75s.75.34.75.75v1.5H17c2 0 3 1 3 3v.45a.3.3 0 0 1-.3.3H2.3a.3.3 0 0 1-.3-.3Zm10.74 12.66c.06.19-.07.39-.28.39H5c-2 0-3-1-3-3V9.05a.3.3 0 0 1 .3-.3h17.4a.3.3 0 0 1 .3.3v3.41c0 .21-.2.34-.39.28a5.476 5.476 0 0 0-1.867-.23c-2.77.125-5.106 2.46-5.232 5.23-.031.66.049 1.28.229 1.87ZM8.02 16a1 1 0 0 0-1-1h-.01a.996.996 0 0 0-.995 1c0 .552.453 1 1.005 1a1 1 0 0 0 1-1Zm0-4a1 1 0 0 0-1-1h-.01a.996.996 0 0 0-.995 1c0 .552.453 1 1.005 1a1 1 0 0 0 1-1Zm4 0a1 1 0 0 0-1-1h-.01a.996.996 0 0 0-.995 1c0 .552.453 1 1.005 1a1 1 0 0 0 1-1ZM22 18a4 4 0 1 1-8 0 4 4 0 0 1 8 0Zm-3.293 0 .646-.646a.5.5 0 0 0-.707-.707l-.646.646-.646-.646a.5.5 0 0 0-.707.707l.646.646-.646.646a.5.5 0 0 0 .708.707l.646-.646.646.646a.498.498 0 0 0 .708 0 .5.5 0 0 0 0-.707L18.707 18Z"/></svg>
